packages/core/src/svgs/tokens/mono/CRU.svg

<svg width="24" height="24" viewBox="0 0 24 24" fill="none" xmlns="http://www.w3.org/2000/svg">
<path d="M19.2171 18.875L13.8338 21.8751C13.5338 22.0418 13.156 22.0418 12.856 21.8751L4.71154 17.3416C4.56505 17.261 4.4426 17.1429 4.35669 16.9994C4.2708 16.8559 4.22455 16.6922 4.22266 16.5249V12.775L8.66712 10.3306V14.1084C8.66712 14.4417 8.83379 14.7583 9.13935 14.9251L12.856 17.0694C13.156 17.2361 13.5338 17.2361 13.8338 17.0694L16.1339 15.7916C16.7172 15.5417 17.2005 15.6083 17.5116 15.8028L18.356 16.625L19.3172 17.5528C19.8172 18.0362 19.606 18.5861 19.2171 18.875Z" fill="white"/>
<path d="M12.856 2.125C13.156 1.95833 13.5338 1.95833 13.8338 2.125L18.9561 4.96946C18.9782 4.99168 19.0117 5.00835 19.056 5.03612C20.0228 5.58613 19.8338 5.98613 19.5394 6.25835C18.9672 6.82556 18.4114 7.40914 17.8727 8.00836L17.4838 8.42503C17.2394 8.68615 16.8838 8.60281 16.5671 8.44725L16.2338 8.25836C16.1445 8.20725 16.0556 8.1554 15.9672 8.10281V8.10836L13.8338 6.91947C13.5338 6.7528 13.156 6.7528 12.856 6.91947C9.94491 8.53614 7.13378 10.1972 4.22266 11.8306V7.46391C4.22266 7.13058 4.41154 6.81391 4.71154 6.64724L12.856 2.11944V2.125Z" fill="white"/>
</svg>

<svg xmlns="http://www.w3.org/2000/svg" width="24" height="24" fill="none" viewBox="0 0 24 24">
    <path fill="#fff" d="m19.217 18.875-5.383 3c-.3.167-.678.167-.978 0l-8.144-4.533a.94.94 0 0 1-.49-.817v-3.75l4.445-2.444v3.777c0 .334.167.65.472.817l3.717 2.144c.3.167.678.167.978 0l2.3-1.277c.583-.25 1.067-.184 1.378.01l.844.823.961.928c.5.483.289 1.033-.1 1.322"/>
    <path fill="#fff" d="M12.856 2.125c.3-.167.678-.167.978 0l5.122 2.844c.022.023.056.04.1.067.967.55.778.95.483 1.222a42 42 0 0 0-1.666 1.75l-.39.417c-.244.261-.6.178-.916.022l-.333-.189q-.134-.076-.267-.155v.005L13.834 6.92a1.02 1.02 0 0 0-.978 0c-2.911 1.617-5.722 3.278-8.633 4.912V7.464c0-.333.189-.65.489-.817l8.144-4.528z"/>
</svg>
